X:54
T:It is an Island (Marquis of Huntly's Strathspey)
M:C
L:1/8
K:D
|:"A7"A|"D"d<d f>d "A"g>e "D"f<d|"G"B<e e>d "A7"c<A A<c|"D"d<d f>d "A7"g>e "D"f<d|"G"B>e "A"c<A "D"d2 d:|
|:z|"A"A>AA>A A/A/A A>A | "A"a>f e>f "G"d<B B2| "A"A>AA>A A/A/A A>A | "G"a>f "A7"e>f "D"d2 d :|
